logos/solid.svg

<?xml version="1.0" encoding="UTF-8"?>
<svg width="256px" height="230px" viewBox="0 0 256 230" version="1.1" xmlns="http://www.w3.org/2000/svg" xmlns:xlink="http://www.w3.org/1999/xlink" preserveAspectRatio="xMidYMid">
		<g>
				<path d="M54.3346939,215.771429 L3.52653061,127.651701 C-1.1755102,119.488435 -1.1755102,109.431293 3.52653061,101.268027 L54.3346939,13.2136054 C59.0585034,5.02857143 67.7877551,0 77.1918367,0 L178.742857,0 C188.168707,0 196.919728,5.02857143 201.6,13.2136054 L252.429932,101.311565 C257.131973,109.47483 257.131973,119.531973 252.429932,127.695238 L201.621769,215.814966 C196.897959,224 188.168707,229.028571 178.764626,229.028571 L77.2571429,229.028571 C67.7877551,228.985034 59.0802721,223.934694 54.3346939,215.771429 Z" fill="#FFFFFF"></path>
				<path d="M58.6666667,209.785034 L10.8843537,126.911565 C6.44353741,119.227211 6.44353741,109.757823 10.8843537,102.095238 L58.6666667,19.2 C63.1292517,11.4938776 71.3360544,6.77006803 80.1959184,6.77006803 L175.760544,6.77006803 C184.620408,6.77006803 192.84898,11.4938776 197.289796,19.2 L245.115646,102.051701 C249.556463,109.736054 249.556463,119.205442 245.115646,126.868027 L197.311565,209.806803 C192.84898,217.512925 184.642177,222.236735 175.782313,222.236735 L80.2394558,222.236735 C71.3360544,222.236735 63.1292517,217.491156 58.6666667,209.785034 Z" fill="#7C4DFF"></path>
				<path d="M71.5719895,95.174127 C69.4001722,93.038401 68.0597453,90.0601934 68.0707483,86.7482993 C68.0707483,69.5727891 81.9809524,55.662585 99.1564626,55.6843537 L158.193197,55.6843537 C170.44898,55.6843537 180.397279,65.6326531 180.397279,77.8884354 L180.397279,96.3265306 C180.397279,97.5455782 179.417687,98.5469388 178.176871,98.5469388 L135.435186,98.5469388 L176.043537,139.167347 C176.10816,139.231969 176.171922,139.297124 176.234823,139.362796 C178.769716,141.326805 180.397279,144.401284 180.397279,147.853061 C180.397279,165.594558 165.986395,180.005442 148.244898,180.005442 L89.4911565,180.005442 C77.6707483,180.005442 68.0489796,170.405442 68.0707483,158.541497 L68.0707483,139.254422 C68.0707483,138.10068 68.985034,137.121088 70.2040816,137.121088 L113.436735,137.121088 L72.4244898,96.1088435 C72.1214938,95.8085528 71.8373253,95.4964949 71.5719895,95.174127 Z" fill="#F7F7F7"></path>
				<polygon fill="#444444" opacity="0.3" points="146.960544 170.688435 103.880272 137.121088 113.414966 137.121088"></polygon>
				<polygon fill="#444444" opacity="0.3" points="101.507483 64.6095238 135.444898 98.5469388 146.960544 98.5469388"></polygon>
		</g>
</svg>

<svg preserveAspectRatio="xMidYMid" viewBox="0 0 256 230" xmlns="http://www.w3.org/2000/svg">
  <path fill="#FFF" d="m54.335 215.771-50.808-88.12a26.437 26.437 0 0 1 0-26.383l50.808-88.054A26.411 26.411 0 0 1 77.192 0h101.55c9.427 0 18.178 5.029 22.858 13.214l50.83 88.098a26.437 26.437 0 0 1 0 26.383l-50.808 88.12a26.411 26.411 0 0 1-22.857 13.214H77.257a26.643 26.643 0 0 1-22.922-13.258Z"/>
  <path fill="#7C4DFF" d="m58.667 209.785-47.783-82.873a24.779 24.779 0 0 1 0-24.817L58.667 19.2A24.882 24.882 0 0 1 80.196 6.77h95.565c8.86 0 17.088 4.724 21.529 12.43l47.826 82.852a24.779 24.779 0 0 1 0 24.816l-47.804 82.939a24.882 24.882 0 0 1-21.53 12.43H80.24a24.92 24.92 0 0 1-21.572-12.452Z"/>
  <path fill="#F7F7F7" d="M71.572 95.174a11.707 11.707 0 0 1-3.501-8.426c0-17.175 13.91-31.085 31.085-31.064h59.037c12.256 0 22.204 9.949 22.204 22.204v18.439c0 1.219-.98 2.22-2.22 2.22h-42.742l40.609 40.62c.064.065.128.13.19.196a10.715 10.715 0 0 1 4.163 8.49c0 17.742-14.41 32.152-32.152 32.152H89.49c-11.82 0-21.442-9.6-21.42-21.464v-19.287c0-1.153.914-2.133 2.133-2.133h43.233L72.424 96.11a12.5 12.5 0 0 1-.852-.935Z"/>
  <path fill="#444" d="m146.96 170.688-43.08-33.567h9.535z" opacity=".3"/>
  <path fill="#444" d="m101.507 64.61 33.938 33.937h11.516z" opacity=".3"/>
</svg>
